X:1250
T:Chandelier, The
M:C|
L:1/8
C:Liz Carroll
R:reel
D:The Carberry's: Memories from the Holla
Z:Devin McCabe
K:D
D2FD ADFG|AdFA dfed|Bggf gfed|cAed cAGE|
!D2FD ADFG|AdFA dfed|cA A/2A/2A cded|1cAGE EFFE:|2cAGE DABc|
!:dfbf afeg|fedf eABc|dfbf afeg|fede cdeg|
!f/2f/2f fe defd|eAA^G ABcA|BAGF GBdB|1AFEA DABc:|2AFEA EFFE||
%  ABC2Win Version 2.1 4/5/2002
